components/ui-node-icon/src/csvOutput/csvOutput.medium.svg

<svg width="24" height="24" viewBox="0 0 24 24" fill="none" xmlns="http://www.w3.org/2000/svg">
  <path fill-rule="evenodd" clip-rule="evenodd" d="M3 5C3 3.34315 4.34315 2 6 2H14L19 7V12.416C20.7659 13.1876 22 14.9497 22 17C22 19.7614 19.7614 22 17 22C16.8093 22 16.6211 21.9893 16.436 21.9685C16.2937 21.9893 16.1481 22 16 22H6C4.34315 22 3 20.6569 3 19V5ZM14.1959 12.8597C14.4358 12.6969 14.6906 12.5544 14.9579 12.4347L14.0854 9.07009H13.0507L14.1959 12.8597ZM15.0384 12.3995C15.3536 12.2649 15.6855 12.1618 16.03 12.094L16.9459 9.07009H15.9112L15.0384 12.3995ZM8.54806 12.4079C8.53249 12.6526 8.47908 12.8729 8.38785 13.0688C8.29884 13.2646 8.17868 13.4315 8.02737 13.5694C7.87606 13.7074 7.69582 13.8142 7.48665 13.8899C7.27748 13.9633 7.04606 14 6.79239 14C6.50534 14 6.25056 13.9477 6.02804 13.8431C5.80552 13.7363 5.6186 13.5883 5.46729 13.3992C5.31598 13.2078 5.20027 12.9786 5.12016 12.7116C5.04005 12.4446 5 12.1509 5 11.8304V11.1762C5 10.8536 5.04228 10.5587 5.12684 10.2917C5.21139 10.0247 5.33155 9.79551 5.48732 9.60414C5.64308 9.41277 5.83111 9.2648 6.0514 9.16021C6.27392 9.0534 6.52314 9 6.79907 9C7.06609 9 7.30307 9.03783 7.51001 9.11348C7.71918 9.18914 7.8972 9.29706 8.04406 9.43725C8.19092 9.57744 8.30663 9.74878 8.39119 9.95127C8.47575 10.1538 8.52915 10.3818 8.5514 10.6355H7.61682C7.60792 10.4909 7.58567 10.364 7.55007 10.255C7.51669 10.146 7.46662 10.0559 7.39987 9.98465C7.33534 9.91122 7.253 9.8567 7.15287 9.8211C7.05496 9.78327 6.93703 9.76435 6.79907 9.76435C6.65443 9.76435 6.5287 9.79551 6.4219 9.85781C6.31509 9.92012 6.22608 10.0113 6.15487 10.1315C6.08589 10.2517 6.03471 10.3996 6.00133 10.5754C5.96796 10.749 5.95127 10.947 5.95127 11.1696V11.8304C5.95127 12.3089 6.01802 12.6627 6.15154 12.8919C6.28727 13.1211 6.50089 13.2356 6.79239 13.2356C7.03716 13.2356 7.23075 13.1711 7.37316 13.0421C7.51558 12.9108 7.59457 12.6994 7.61015 12.4079H8.54806ZM11.8024 12.6615C11.8024 12.5748 11.7868 12.4935 11.7557 12.4179C11.7267 12.3422 11.6756 12.2721 11.6021 12.2076C11.5309 12.1409 11.4364 12.0808 11.3184 12.0274C11.2027 11.9717 11.0581 11.9206 10.8845 11.8738C10.6731 11.816 10.4706 11.7437 10.277 11.6569C10.0857 11.5701 9.91655 11.4655 9.76969 11.3431C9.62283 11.2207 9.5049 11.0783 9.41589 10.9159C9.32911 10.7534 9.28571 10.5665 9.28571 10.3551C9.28571 10.1504 9.32911 9.96462 9.41589 9.79773C9.50267 9.63084 9.62283 9.48843 9.77637 9.37049C9.92991 9.25256 10.1113 9.16244 10.3204 9.10013C10.5296 9.0356 10.7566 9.00334 11.0013 9.00334C11.255 9.00334 11.4864 9.04005 11.6956 9.11348C11.907 9.18692 12.0883 9.29039 12.2397 9.4239C12.391 9.55518 12.5089 9.71206 12.5935 9.89453C12.678 10.077 12.7203 10.2773 12.7203 10.4953H11.8057C11.8013 10.3863 11.7813 10.2862 11.7457 10.1949C11.7123 10.1037 11.6611 10.0258 11.5921 9.96128C11.5254 9.89453 11.4408 9.84335 11.3385 9.80774C11.2383 9.76992 11.1204 9.751 10.9846 9.751C10.86 9.751 10.7488 9.76658 10.6509 9.79773C10.5552 9.82666 10.474 9.86894 10.4072 9.92457C10.3405 9.97797 10.2893 10.0425 10.2537 10.1182C10.2203 10.1916 10.2036 10.2717 10.2036 10.3585C10.2036 10.4497 10.2259 10.532 10.2704 10.6055C10.3171 10.6789 10.3838 10.7457 10.4706 10.8057C10.5574 10.8636 10.662 10.917 10.7844 10.966C10.909 11.0149 11.0492 11.0605 11.2049 11.1028C11.4275 11.1673 11.6322 11.2463 11.8191 11.3398C12.006 11.4332 12.1662 11.5445 12.2997 11.6736C12.4355 11.8004 12.5401 11.9462 12.6135 12.1108C12.6891 12.2733 12.727 12.4546 12.727 12.6549C12.727 12.8685 12.6836 13.0587 12.5968 13.2256C12.5122 13.3903 12.3943 13.5305 12.243 13.6462C12.0917 13.7597 11.9114 13.8465 11.7023 13.9065C11.4931 13.9644 11.265 13.9933 11.018 13.9933C10.8645 13.9933 10.7109 13.9789 10.5574 13.9499C10.4061 13.9232 10.2603 13.881 10.1202 13.8231C9.9822 13.7652 9.85314 13.6929 9.73298 13.6061C9.61282 13.5194 9.50823 13.4181 9.41923 13.3024C9.33244 13.1867 9.26346 13.0554 9.21228 12.9085C9.16333 12.7617 9.13885 12.5992 9.13885 12.4212H10.0601C10.0645 12.5681 10.0901 12.6938 10.1368 12.7984C10.1836 12.903 10.2481 12.9887 10.3304 13.0554C10.415 13.1222 10.5151 13.1711 10.6308 13.2023C10.7488 13.2334 10.8778 13.249 11.018 13.249C11.1426 13.249 11.2528 13.2345 11.3485 13.2056C11.4464 13.1767 11.5287 13.1366 11.5955 13.0854C11.6622 13.0343 11.7134 12.9731 11.749 12.9019C11.7846 12.8284 11.8024 12.7483 11.8024 12.6615ZM17 21C19.2091 21 21 19.2091 21 17C21 14.7909 19.2091 13 17 13C14.7909 13 13 14.7909 13 17C13 19.2091 14.7909 21 17 21ZM17 14.5C17.2761 14.5 17.5 14.7239 17.5 15V17.7929L18.6464 16.6464C18.8417 16.4512 19.1583 16.4512 19.3536 16.6464C19.5488 16.8417 19.5488 17.1583 19.3536 17.3536L17.3536 19.3536C17.1583 19.5488 16.8417 19.5488 16.6464 19.3536L14.6464 17.3536C14.4512 17.1583 14.4512 16.8417 14.6464 16.6464C14.8417 16.4512 15.1583 16.4512 15.3536 16.6464L16.5 17.7929V15C16.5 14.7239 16.7239 14.5 17 14.5Z" fill="var(--tbl--colors--icons--transformation--primary)"/>
  <path d="M19 7L14 2V5C14 6.10457 14.8954 7 16 7H19Z" fill="white" fill-opacity="0.5"/>
</svg>

<svg xmlns="http://www.w3.org/2000/svg" width="24" height="24" fill="none" viewBox="0 0 24 24">
  <path fill="var(--tbl--colors--icons--transformation--primary)" fill-rule="evenodd" d="M3 5a3 3 0 0 1 3-3h8l5 5v5.416a5.001 5.001 0 0 1-2.564 9.552c-.142.021-.288.032-.436.032H6a3 3 0 0 1-3-3V5Zm11.196 7.86c.24-.163.495-.306.762-.425l-.873-3.365h-1.034l1.145 3.79Zm.842-.46c.316-.135.647-.238.992-.306l.916-3.024H15.91l-.873 3.33Zm-6.49.008a1.827 1.827 0 0 1-.16.66 1.519 1.519 0 0 1-.901.822c-.21.073-.44.11-.695.11-.287 0-.541-.052-.764-.157a1.588 1.588 0 0 1-.56-.444 2.042 2.042 0 0 1-.348-.687c-.08-.267-.12-.561-.12-.882v-.654c0-.322.042-.617.127-.884.084-.267.205-.496.36-.688a1.61 1.61 0 0 1 .564-.444c.223-.107.472-.16.748-.16.267 0 .504.038.711.113.21.076.387.184.534.324.147.14.263.312.347.514.085.203.138.43.16.684h-.934a1.534 1.534 0 0 0-.067-.38.679.679 0 0 0-.15-.27.58.58 0 0 0-.247-.164.983.983 0 0 0-.354-.057.735.735 0 0 0-.377.094.751.751 0 0 0-.267.274c-.07.12-.12.268-.154.443-.033.174-.05.372-.05.595v.66c0 .479.067.833.2 1.062.136.23.35.344.641.344.245 0 .439-.065.581-.194.143-.131.222-.343.237-.634h.938Zm3.254.254a.634.634 0 0 0-.046-.244.538.538 0 0 0-.154-.21 1.038 1.038 0 0 0-.284-.18 2.536 2.536 0 0 0-.434-.154 4.172 4.172 0 0 1-.607-.217 2.22 2.22 0 0 1-.507-.314 1.477 1.477 0 0 1-.354-.427 1.172 1.172 0 0 1-.13-.56c0-.206.043-.391.13-.558.087-.167.207-.31.36-.428.154-.117.335-.208.544-.27a2.3 2.3 0 0 1 .681-.097c.254 0 .485.037.695.11.211.074.392.177.544.31a1.39 1.39 0 0 1 .48 1.072h-.914a.924.924 0 0 0-.06-.3.658.658 0 0 0-.407-.387 1 1 0 0 0-.354-.057 1.1 1.1 0 0 0-.334.047.686.686 0 0 0-.244.127.54.54 0 0 0-.137.68c.047.074.114.14.2.2.087.059.192.112.314.161.125.049.265.095.42.137.223.064.428.143.615.237.187.093.347.204.48.334.136.126.241.272.315.437.075.162.113.344.113.544 0 .213-.043.404-.13.57a1.235 1.235 0 0 1-.354.421 1.65 1.65 0 0 1-.54.26c-.21.058-.438.087-.685.087a2.476 2.476 0 0 1-.898-.17 1.942 1.942 0 0 1-.387-.217 1.503 1.503 0 0 1-.314-.304 1.442 1.442 0 0 1-.207-.393 1.534 1.534 0 0 1-.073-.488h.921c.005.147.03.273.077.377.047.105.111.19.193.257a.825.825 0 0 0 .3.147c.119.031.248.047.388.047.125 0 .235-.014.33-.043a.752.752 0 0 0 .247-.12.526.526 0 0 0 .154-.184.544.544 0 0 0 .053-.24ZM17 21a4 4 0 1 0 0-8 4 4 0 0 0 0 8Zm0-6.5a.5.5 0 0 1 .5.5v2.793l1.146-1.147a.5.5 0 0 1 .708.708l-2 2a.5.5 0 0 1-.708 0l-2-2a.5.5 0 0 1 .708-.708l1.146 1.147V15a.5.5 0 0 1 .5-.5Z" clip-rule="evenodd"/>
  <path fill="#fff" fill-opacity=".5" d="m19 7-5-5v3a2 2 0 0 0 2 2h3Z"/>
</svg>
